X:133
T:The Clocks Go Back Tonight
C:Colin Hume, 1991
N:Steady, with a swing - it should really be written in 12/8.
L:1/8
M:2/2
S:Colin Hume's website,  colinhume.com  - chords can also be printed below the stave.
Q:1/2=112
K:G
P:A
|: "G"DEG2 G2DE | "C"G2G2 "D"AB-B2 | "Em"GAB2 B2GA | "D"B2B2 "D7"A4 | "G"de-ed- dBAG | "C7"_B2B2 AG-G2 | "G"DEGG- "Em"GDEG | "D7"AB-B2 "G"G4 :|
P:B
|: "G"de-ed- d4 | "C7"_Bc-cB- B4 | "Em"L=B2EF GFE2 | "C"Lc2EF GFE2 |
"A7"^cd-de- e2c2 | "D"Ld2DE FED2 |1 "G"B2EF "Em"GFED | "A7"^CE-ED- "D7"D4 :|2 "G"degg- "Em"gBc^c | "D"d2d2 "G"G4 |]

